src/svg/chip.svg

<svg width="85" height="85" viewBox="0 0 85 85" fill="none" xmlns="http://www.w3.org/2000/svg">
<rect width="85" height="85" rx="42.5" fill="#C8E400"/>
<path fill-rule="evenodd" clip-rule="evenodd" d="M34.6118 26.7995C37.4305 25.6112 40.4506 25 43.5 25C46.5494 25 49.5695 25.6112 52.3882 26.7995C55.207 27.9878 57.77 29.7302 59.9301 31.9286C60.5107 32.5196 61.4604 32.5279 62.0513 31.9473C62.6422 31.3667 62.6506 30.417 62.0699 29.8261C59.6338 27.3466 56.7401 25.3784 53.5536 24.0351C50.367 22.6918 46.9507 22 43.5 22C40.0493 22 36.633 22.6918 33.4464 24.0351C30.2599 25.3784 27.3662 27.3466 24.9301 29.8261C24.3494 30.417 24.3578 31.3667 24.9487 31.9473C25.5396 32.5279 26.4893 32.5196 27.0699 31.9286C29.23 29.7302 31.793 27.9878 34.6118 26.7995ZM37.7687 34.5564C39.5866 33.79 41.534 33.3959 43.5 33.3959C45.466 33.3959 47.4134 33.79 49.2313 34.5564C51.0492 35.3227 52.7027 36.4467 54.0967 37.8655C54.6773 38.4564 55.627 38.4647 56.218 37.8841C56.8089 37.3035 56.8172 36.3538 56.2366 35.7629C54.5665 34.0631 52.5823 32.7133 50.3966 31.792C48.2109 30.8705 45.8674 30.3959 43.5 30.3959C41.1326 30.3959 38.7891 30.8705 36.6034 31.792C34.4177 32.7133 32.4335 34.0631 30.7634 35.7629C30.1828 36.3538 30.1911 37.3035 30.782 37.8841C31.373 38.4647 32.3227 38.4564 32.9033 37.8655C34.2973 36.4467 35.9508 35.3227 37.7687 34.5564ZM40.9257 42.3132C41.7427 41.9688 42.6173 41.7919 43.5 41.7919C44.3827 41.7919 45.2573 41.9688 46.0743 42.3132C46.8913 42.6576 47.6354 43.1632 48.2634 43.8023C48.844 44.3932 49.7937 44.4016 50.3846 43.821C50.9755 43.2403 50.9839 42.2906 50.4033 41.6997C49.4992 40.7796 48.4244 40.0482 47.2397 39.5488C46.0548 39.0493 44.784 38.7919 43.5 38.7919C42.216 38.7919 40.9452 39.0493 39.7603 39.5488C38.5756 40.0482 37.5008 40.7796 36.5967 41.6997C36.0161 42.2906 36.0245 43.2403 36.6154 43.821C37.2063 44.4016 38.156 44.3932 38.7366 43.8023C39.3646 43.1632 40.1087 42.6576 40.9257 42.3132ZM23 52.8016C23 51.9732 23.6716 51.3016 24.5 51.3016H61.5C62.3284 51.3016 63 51.9732 63 52.8016C63 53.6301 62.3284 54.3016 61.5 54.3016H24.5C23.6716 54.3016 23 53.6301 23 52.8016ZM31 60.502C31 59.6736 31.6716 59.002 32.5 59.002H53.5C54.3284 59.002 55 59.6736 55 60.502C55 61.3304 54.3284 62.002 53.5 62.002H32.5C31.6716 62.002 31 61.3304 31 60.502Z" fill="black"/>
</svg>

<svg width="84" height="84" viewBox="0 0 85 85" fill="none" xmlns="http://www.w3.org/2000/svg"><mask id="b" style="mask-type:alpha" maskUnits="userSpaceOnUse" x="0" y="0" width="85" height="85"><path fill-rule="evenodd" clip-rule="evenodd" d="M42.5 0C19.028 0 0 19.028 0 42.5S19.028 85 42.5 85 85 65.972 85 42.5 65.972 0 42.5 0Zm1 25c-3.05 0-6.07.611-8.888 1.8a23.225 23.225 0 0 0-7.542 5.129 1.5 1.5 0 1 1-2.14-2.103 26.222 26.222 0 0 1 8.516-5.79A25.876 25.876 0 0 1 43.5 22c3.45 0 6.867.692 10.054 2.035a26.222 26.222 0 0 1 8.516 5.791 1.5 1.5 0 1 1-2.14 2.103 23.225 23.225 0 0 0-7.542-5.13A22.874 22.874 0 0 0 43.5 25Zm0 8.396a14.75 14.75 0 0 0-5.731 1.16 14.981 14.981 0 0 0-4.866 3.31 1.5 1.5 0 0 1-2.14-2.103 17.98 17.98 0 0 1 5.84-3.971 17.748 17.748 0 0 1 13.793 0 17.98 17.98 0 0 1 5.84 3.97 1.5 1.5 0 1 1-2.14 2.103 14.981 14.981 0 0 0-4.865-3.309 14.747 14.747 0 0 0-5.731-1.16Zm0 8.396c-.883 0-1.757.177-2.574.521a6.742 6.742 0 0 0-2.19 1.49 1.5 1.5 0 1 1-2.14-2.103 9.742 9.742 0 0 1 3.164-2.151 9.625 9.625 0 0 1 7.48 0c1.184.5 2.26 1.23 3.163 2.15a1.5 1.5 0 0 1-2.14 2.103 6.742 6.742 0 0 0-2.189-1.489 6.625 6.625 0 0 0-2.574-.521Zm-19 9.51a1.5 1.5 0 0 0 0 3h37a1.5 1.5 0 1 0 0-3h-37Zm8 7.7a1.5 1.5 0 0 0 0 3h21a1.5 1.5 0 0 0 0-3h-21Z" fill="url(#a)"/></mask><g filter="url(#c)" mask="url(#b)"><path d="M-3 44.5C-3 19.371 17.371-1 42.5-1S88 19.371 88 44.5 67.629 90 42.5 90-3 69.629-3 44.5Z" fill="url(#d)"/></g><g filter="url(#e)"><path fill-rule="evenodd" clip-rule="evenodd" d="M34.612 26.8A22.874 22.874 0 0 1 43.5 25c3.05 0 6.07.611 8.888 1.8a23.225 23.225 0 0 1 7.542 5.129 1.5 1.5 0 1 0 2.14-2.103 26.222 26.222 0 0 0-8.516-5.79A25.876 25.876 0 0 0 43.5 22c-3.45 0-6.867.692-10.054 2.035a26.222 26.222 0 0 0-8.516 5.791 1.5 1.5 0 1 0 2.14 2.103 23.225 23.225 0 0 1 7.542-5.13Zm3.157 7.756a14.75 14.75 0 0 1 5.731-1.16c1.966 0 3.913.394 5.731 1.16a14.981 14.981 0 0 1 4.866 3.31 1.5 1.5 0 0 0 2.14-2.103 17.98 17.98 0 0 0-5.84-3.971 17.748 17.748 0 0 0-13.794 0 17.98 17.98 0 0 0-5.84 3.97 1.5 1.5 0 1 0 2.14 2.103 14.981 14.981 0 0 1 4.866-3.309Zm3.157 7.757a6.625 6.625 0 0 1 5.148 0c.817.345 1.561.85 2.19 1.49a1.5 1.5 0 1 0 2.14-2.103 9.742 9.742 0 0 0-3.164-2.151 9.625 9.625 0 0 0-7.48 0 9.742 9.742 0 0 0-3.163 2.15 1.5 1.5 0 0 0 2.14 2.103 6.742 6.742 0 0 1 2.189-1.489ZM23 52.802a1.5 1.5 0 0 1 1.5-1.5h37a1.5 1.5 0 0 1 0 3h-37a1.5 1.5 0 0 1-1.5-1.5Zm8 7.7a1.5 1.5 0 0 1 1.5-1.5h21a1.5 1.5 0 0 1 0 3h-21a1.5 1.5 0 0 1-1.5-1.5Z" fill="url(#f)"/></g><defs><radialGradient id="a" cx="0" cy="0" r="1" gradientUnits="userSpaceOnUse" gradientTransform="rotate(56.901 13.206 -19.69) scale(174.879)"><stop offset=".202" stop-color="#FFFCEF"/><stop offset=".466" stop-color="#9AA9FA"/><stop offset=".635" stop-color="#F7D3ED"/><stop offset=".731" stop-color="#FFFCEF"/></radialGradient><radialGradient id="d" cx="0" cy="0" r="1" gradientUnits="userSpaceOnUse" gradientTransform="rotate(-38.258 120.619 41.03) scale(111.433)"><stop offset=".202" stop-color="#FFFCEF"/><stop offset=".37" stop-color="#B9C4FF"/><stop offset=".595" stop-color="#494DC1"/><stop offset=".747" stop-color="#FF8FED"/><stop offset=".825" stop-color="#FFFCEF"/></radialGradient><radialGradient id="f" cx="0" cy="0" r="1" gradientUnits="userSpaceOnUse" gradientTransform="rotate(-38.26 97.525 -5.8) scale(48.9824 48.9829)"><stop offset=".202" stop-color="#FFFCEF"/><stop offset=".37" stop-color="#B9C4FF"/><stop offset=".595" stop-color="#494DC1"/><stop offset=".747" stop-color="#FF8FED"/><stop offset=".825" stop-color="#FFFCEF"/></radialGradient><filter id="c" x="-23" y="-21" width="131" height="131" filterUnits="userSpaceOnUse" color-interpolation-filters="sRGB"><feFlood flood-opacity="0" result="BackgroundImageFix"/><feBlend in="SourceGraphic" in2="BackgroundImageFix" result="shape"/><feGaussianBlur stdDeviation="10" result="effect1_foregroundBlur_304_6507"/></filter><filter id="e" x="3" y="2" width="80" height="80.002" filterUnits="userSpaceOnUse" color-interpolation-filters="sRGB"><feFlood flood-opacity="0" result="BackgroundImageFix"/><feBlend in="SourceGraphic" in2="BackgroundImageFix" result="shape"/><feGaussianBlur stdDeviation="10" result="effect1_foregroundBlur_304_6507"/></filter></defs></svg>
